X: 1
T: A Jig For Jane
Z: Sergei Ejov
S: https://thesession.org/tunes/15877#setting29864
R: jig
M: 6/8
L: 1/8
K: Gmaj
|: G2 D GAB | dBA GED | EDE GAB | AGA BGz |
|1 G2 D GAB | dBA GED | EDE GAB | AGE G3 :|
|2 DGG GAB | dBA GED | EDE GAB | AGE G3 ||
| Bee edB | d2 d dBA | GAB AGG |AGA BAB |
| B2 e edB | d2 d def | gfe dBG | AGA BAB |
| B2 e edB | d2 d dBA | GAB AGG |AGA BGz |
| DGG GAB | dBA GED | EDE GAB | AGE G3 ||
